X:1
T:Title
%%score { ( 1 3 4 ) | ( 2 5 ) }
L:1/8
Q:1/4=100
M:4/4
K:Bb
V:1 treble nm="Grand Piano"
V:3 treble 
V:4 treble 
V:2 bass 
V:5 bass 
V:1
 [Fd][Fd][Fd][Fd] [Fd][Ec][Ec][DB] | [DF][DF][DF][DG] [DG][DF] [DF]2 | FAAc c f3 | %3
w: Charles~H.~Gabriel * * * * * * *|||
 [DF][DB][DB][Fd] [Fd] [Ff]3 | [Fd][Fd][Fd][Fd] [Fd][Ec][Ec][DB] | [DF][DF][DF][DG] [DG][DF] F2 | %6
w: |||
 z .c3 z .c3 | Ac[=Ec][EG] [_Ec]4 | [Fd]2 [Fd]2 [Fd]3 [DF] | z4 d4 | [Ae]2 [Ae]2 [Ae]3 F | z4 e4 | %12
w: ||||||
 ddcB eed[Gc] | [Ff]2 [_Af]2 [Gf][Ge][Gd][Gc] | d d2 d c c2 c | [DB]6 z2 |] %16
w: ||||
V:2
 [B,,B,][B,,B,][B,,B,][B,,B,] [B,,B,][B,,B,][B,,F,][B,,F,] | %1
 [B,,B,][B,,B,][B,,B,][B,,B,] [B,,B,][B,,B,] [B,,B,]2 | %2
 [F,A,E][F,CE][F,CE][F,A,E] [F,A,E] [F,A,E]3 | [B,,B,][B,,F,][B,,F,][B,,B,] [B,,B,] [D,B,]3 | %4
 [B,,B,][B,,B,][B,,B,][B,,B,] [B,,B,][B,,B,][B,,F,][B,,F,] | %5
 [B,,B,][B,,B,][B,,B,][B,,B,] [B,,B,][B,,B,] [D,B,]2 | [C,C][C,A,] [C,B,]2 [F,CF][F,A,F] [C,B,]2 | %7
 [F,CF][F,A,F][C,B,][C,B,] [F,A,]4 | [B,,B,]2 [B,,B,]2 [B,,B,]3 [B,,B,] | %9
 [B,,B,]2 [B,,B,]2 [B,,B,]B,,B,,D, | [F,C]2 [F,C]2 [F,C]3 [F,A,] | .F2 [F,C]2 z4[K:bass] | %12
 [B,F][B,F][A,CF][_A,DF] [G,B,E][K:bass][G,B,E][F,B,F][E,B,] | %13
 [D,B,]2 [D,B,]2 [E,B,][E,B,][E,B,][E,B,] | [F,B,F] [F,B,F]2 [F,G,F] [F,A,E] [F,A,E]2 [F,A,E] | %15
 [B,,B,]6 z2 |] %16
V:3
 x8 | x8 | x8 | x8 | x8 | x8 | [FA]F z G .A2 z G | x8 | x8 | [Fd][Bd][Ad][Gd] F[DB][F,D][B,F] | %10
 x8 | ee[Ae]e z GAF | x8 | x8 | x8 | x8 |] %16
V:4
 x8 | x8 | x8 | x8 | x8 | x8 | z2 =E2 z2 E2 | x8 | x8 | x8 | x8 | x8 | x8 | x8 | x8 | x8 |] %16
V:5
 x8 | x8 | x8 | x8 | x8 | x8 | x8 | x8 | x8 | x8 | x8 | %11
 [F,C]-[F,CB] z G [F,A,F][K:bass][F,B,][F,C][F,A,] | x5[K:bass] x3 | x8 | x8 | x8 |] %16

